X: 12181
T: Ey Up! Here Comes Godot
R: jig
M: 6/8
K: Eminor
E2F GFE|Bee BAG|D2E FED|d^cd AGF|
E2F GFE|Be^d e2f|gfe dBA|Be^d e3:|
|:g2e e^de|Beg bag|f2d d^cd|Adf agf|
[1 g2e e^de|Beg bag|gfe dBA|Bee e3:|
[2 e^de fef|gfg bag|gfe dBA|Be^d e2e||

